packages/bezier-icons/icons/column.svg

<svg width="24" height="24" viewBox="0 0 24 24" fill="none" xmlns="http://www.w3.org/2000/svg">
<path fill-rule="evenodd" clip-rule="evenodd" d="M14 6H10V18H14V6ZM16 6V18H19C19.5523 18 20 17.5523 20 17V7C20 6.44771 19.5523 6 19 6H16ZM5 6H8V18H5C4.44772 18 4 17.5523 4 17V7C4 6.44772 4.44772 6 5 6ZM5 4C3.34315 4 2 5.34315 2 7V17C2 18.6569 3.34315 20 5 20H19C20.6569 20 22 18.6569 22 17V7C22 5.34315 20.6569 4 19 4H5Z" fill="#313234"/>
</svg>

<svg xmlns="http://www.w3.org/2000/svg" width="24" height="24" fill="none" viewBox="0 0 24 24"><path fill="#313234" fill-rule="evenodd" d="M14 6h-4v12h4zm2 0v12h3a1 1 0 0 0 1-1V7a1 1 0 0 0-1-1zM5 6h3v12H5a1 1 0 0 1-1-1V7a1 1 0 0 1 1-1m0-2a3 3 0 0 0-3 3v10a3 3 0 0 0 3 3h14a3 3 0 0 0 3-3V7a3 3 0 0 0-3-3z" clip-rule="evenodd"/></svg>
